comma-box.svg

<svg fill="currentColor" viewBox="0 0 24 24"><path d="M5 3h14a2 2 0 0 1 2 2v14a2 2 0 0 1-2 2H5a2 2 0 0 1-2-2V5a2 2 0 0 1 2-2m10 10V7H9v6h3l-2 4h3z"/></svg>

<svg  viewBox="0 0 24 24" fill="currentColor"><path  d="M5,3H19A2,2 0 0,1 21,5V19A2,2 0 0,1 19,21H5A2,2 0 0,1 3,19V5A2,2 0 0,1 5,3M15,13V7H9V13H12L10,17H13L15,13Z"/></svg>
